X: 32538
T: Planxty Drew
R: waltz
M: 3/4
K: Gdorian
z4 GA|:B2 A2 G2|B2 c2 d2|c2 d2 B2|A2 G2 F2|G2 D2 G2|G4 GA|B2 G2 G2|G4 GA|
B2 A2 G2|B2 c2 d2|c2 d2 B2|A2 G2 F2|G2 g2 g2|ag f2 d2|c2 A2 ^F2|1 G4 GA:|2 G4 BA|:
G2 D2 G2|B2 c2 d2|G2 g2 g2|g2 a2 f2|g2 f2 d2|cB A2 G2|F2 f2 f2|f4 fg|a2 fg af|
g2 ef ge|f2 de fd|c2 AB cA|G2 g2 g2|ag f2 d2|c2 A2 ^F2|1 G4 BA:|2 G6|

